X:0330
T:The Milk Maid
N:e upbeat to second part added
M:6/8
L:1/8
Q:3/8=120
I: :: :|
Z:Jack Campin * www.campin.me.uk * 2009
K:D
 A    |d2d ede|fgf  a2a|g2g  f2f|  ede d2
 A    |d2d ede|fgf  a2a|g2g  f2f|  ede d2:|
 e    |f2f edc|dcB  A2E|A2c  B2d|  c2B c2A|
       f2f edc|f^ga e2e|fef ^gfg|(.a3 .a2)
(f/g/)|afd def|ged  cBA|Bcd  efg|  fed cBA|
       afd def|ged  cBA|Bcd  Adc|  d3  d2:|
<end>
<start>
